assets/icons/qvision/cake.svg

<svg xmlns="http://www.w3.org/2000/svg" height="24" viewBox="0 0 24 24" width="24"><path d="M0 0h24v24H0z" fill="none"/><path d="M12 6c1.11 0 2-.9 2-2 0-.38-.1-.73-.29-1.03L12 0l-1.71 2.97c-.19.3-.29.65-.29 1.03 0 1.1.9 2 2 2zm4.6 9.99l-1.07-1.07-1.08 1.07c-1.3 1.3-3.58 1.31-4.89 0l-1.07-1.07-1.09 1.07C6.75 16.64 5.88 17 4.96 17c-.73 0-1.4-.23-1.96-.61V21c0 .55.45 1 1 1h16c.55 0 1-.45 1-1v-4.61c-.56.38-1.23.61-1.96.61-.92 0-1.79-.36-2.44-1.01zM18 9h-5V7h-2v2H6c-1.66 0-3 1.34-3 3v1.54c0 1.08.88 1.96 1.96 1.96.52 0 1.02-.2 1.38-.57l2.14-2.13 2.13 2.13c.74.74 2.03.74 2.77 0l2.14-2.13 2.13 2.13c.37.37.86.57 1.38.57 1.08 0 1.96-.88 1.96-1.96V12C21 10.34 19.66 9 18 9z"/></svg>

<svg width="24" height="24" viewBox="0 0 24 24" fill="none" xmlns="http://www.w3.org/2000/svg">
<g clip-path="url(#clip0_147_6359)">
<path d="M12 6C13.11 6 14 5.1 14 4C14 3.62 13.9 3.27 13.71 2.97L12 0L10.29 2.97C10.1 3.27 10 3.62 10 4C10 5.1 10.9 6 12 6ZM16.6 15.99L15.53 14.92L14.45 15.99C13.15 17.29 10.87 17.3 9.56 15.99L8.49 14.92L7.4 15.99C6.75 16.64 5.88 17 4.96 17C4.23 17 3.56 16.77 3 16.39V21C3 21.55 3.45 22 4 22H20C20.55 22 21 21.55 21 21V16.39C20.44 16.77 19.77 17 19.04 17C18.12 17 17.25 16.64 16.6 15.99ZM18 9H13V7H11V9H6C4.34 9 3 10.34 3 12V13.54C3 14.62 3.88 15.5 4.96 15.5C5.48 15.5 5.98 15.3 6.34 14.93L8.48 12.8L10.61 14.93C11.35 15.67 12.64 15.67 13.38 14.93L15.52 12.8L17.65 14.93C18.02 15.3 18.51 15.5 19.03 15.5C20.11 15.5 20.99 14.62 20.99 13.54V12C21 10.34 19.66 9 18 9Z" fill="#323232"/>
</g>
<defs>
<clipPath id="clip0_147_6359">
<rect width="24" height="24" fill="white"/>
</clipPath>
</defs>
</svg>
